X: 20989
T: Julia Clifford's
R: jig
M: 6/8
K: Dmajor
e|fdf g2e|fdf g2f|eaa ecA|BcB Bce|
fdf g2e|fdf g2f|eaa ecB|ABA A2:|
B|c2e ece|faf ece|faf ecA|BcB BAB|
c2e ece|faf ece|faf ecB|ABA A2:|

